X: 42595
T: Where Lilies Bloom
R: polka
M: 2/4
K: Dmajor
|:DF/A/ BA|d2- dc|B>A Bc|B/c/B/A/ FA|
DF/A/ BA|d2- dc|B>A B/c/d|1 ed d2:|2 ed de||
fg/f/ ef/e/|de/d/ cd/c/|B>A Bc|B/c/B/A/ FA|
f3 e3|de/d/ cd/c/|B>A Bd|ed de|
fg/f/ ef/e/|d>e dc|BB/A/ Bc|BA F/G/A|
DF/A/ B/c/B/A/|d2- dc|BA B/c/d|ed d2||

